X:115
T:Man Who'll Never Be Able, The
T:Sir Phillip McHugh
T:Funny Mistake, The
R:slip jig
H:Also in D
Z:id:hn-slipjig-115
M:9/8
L:1/8
K:G
G2c BGB c2A | Bdd cAG F2D | G2c BGB c2A |1 Bdd cAF G2D :|2 Bdd cAF G2B ||
|: ~A3 AFD FED | ABA AGF G2B | ABA AFD FED |1 B2d cAF G2B :|2 B2d cAF G2D || 

